file/cbre.svg

<?xml version="1.0" encoding="UTF-8" standalone="no"?>
<!DOCTYPE svg PUBLIC "-//W3C//DTD SVG 1.1//EN" "http://www.w3.org/Graphics/SVG/1.1/DTD/svg11.dtd">
<svg width="100%" height="100%" viewBox="0 0 560 400" version="1.1" xmlns="http://www.w3.org/2000/svg" xmlns:xlink="http://www.w3.org/1999/xlink" xml:space="preserve" xmlns:serif="http://www.serif.com/" style="fill-rule:evenodd;clip-rule:evenodd;stroke-linejoin:round;stroke-miterlimit:1.41421;">
    <g transform="matrix(1.88002,0,0,1.88002,-141.03,-115.843)">
        <path d="M278.355,144.33L278.355,191.67L320.655,191.67L320.655,180.6L290.685,180.6L290.685,172.86L317.145,172.86L317.145,162.69L290.685,162.69L290.685,155.4L320.655,155.4L320.655,144.33L278.355,144.33Z" style="fill:rgb(0,111,83);fill-rule:nonzero;"/>
        <path d="M172.605,144.33L151.455,144.33C149.205,144.51 145.335,144.69 141.465,146.31C137.775,148.02 134.445,150.72 132.015,153.96C128.955,158.19 127.245,163.14 127.245,168.27C127.245,169.89 127.425,171.06 127.695,172.59C129.135,179.88 133.905,185.73 140.835,188.97C143.445,190.14 146.955,191.22 153.885,191.67L172.695,191.67L172.695,180.6C172.695,180.6 155.325,180.78 150.825,180.33C142.365,179.52 139.395,173.22 139.395,168.09C139.395,160.8 143.805,156.48 150.465,155.49C152.715,155.13 172.695,155.22 172.695,155.22L172.605,144.33Z" style="fill:rgb(0,111,83);fill-rule:nonzero;"/>
        <path d="M207.075,180.6L192.585,180.6L192.585,172.86L208.335,172.86C210.585,172.86 211.935,174.75 211.935,176.55C211.845,178.35 211.035,180.6 207.075,180.6M192.585,155.4L207.975,155.4C210.225,155.4 211.575,157.2 211.575,158.91C211.575,160.71 210.765,162.78 206.805,162.78L192.495,162.78L192.585,155.4ZM216.885,167.64C222.105,165.57 223.455,160.62 223.455,157.38C223.455,157.02 223.455,156.66 223.365,156.39C222.825,150.54 217.785,144.33 205.365,144.33L180.435,144.33L180.435,191.67L205.365,191.67C218.955,191.67 223.815,184.83 223.815,178.08C223.815,171.33 218.775,168.63 216.885,167.64" style="fill:rgb(0,111,83);fill-rule:nonzero;"/>
        <path d="M255.945,162.69L241.725,162.69L241.725,155.31L257.115,155.31C259.365,155.31 260.715,157.11 260.715,158.82C260.625,160.53 259.815,162.69 255.945,162.69M229.395,191.67L241.635,191.67L241.635,172.86L253.065,172.86C256.485,172.95 259.185,175.65 259.185,179.16L259.185,191.67L271.155,191.67L271.155,177.27C271.155,171.51 267.645,168.81 265.845,168C271.065,165.84 272.325,160.71 272.325,157.47C272.325,157.11 272.325,156.75 272.235,156.48C271.695,150.63 266.655,144.42 254.235,144.42L229.305,144.42L229.395,191.67Z" style="fill:rgb(0,111,83);fill-rule:nonzero;"/>
    </g>
</svg>

<svg clip-rule="evenodd" fill-rule="evenodd" stroke-linejoin="round" stroke-miterlimit="1.41421" viewBox="0 0 560 400" xmlns="http://www.w3.org/2000/svg"><g fill="#006f53" fill-rule="nonzero" transform="matrix(1.88002 0 0 1.88002 -141.03 -115.843)"><path d="m278.355 144.33v47.34h42.3v-11.07h-29.97v-7.74h26.46v-10.17h-26.46v-7.29h29.97v-11.07z"/><path d="m172.605 144.33h-21.15c-2.25.18-6.12.36-9.99 1.98-3.69 1.71-7.02 4.41-9.45 7.65-3.06 4.23-4.77 9.18-4.77 14.31 0 1.62.18 2.79.45 4.32 1.44 7.29 6.21 13.14 13.14 16.38 2.61 1.17 6.12 2.25 13.05 2.7h18.81v-11.07s-17.37.18-21.87-.27c-8.46-.81-11.43-7.11-11.43-12.24 0-7.29 4.41-11.61 11.07-12.6 2.25-.36 22.23-.27 22.23-.27z"/><path d="m207.075 180.6h-14.49v-7.74h15.75c2.25 0 3.6 1.89 3.6 3.69-.09 1.8-.9 4.05-4.86 4.05m-14.49-25.2h15.39c2.25 0 3.6 1.8 3.6 3.51 0 1.8-.81 3.87-4.77 3.87h-14.31zm24.3 12.24c5.22-2.07 6.57-7.02 6.57-10.26 0-.36 0-.72-.09-.99-.54-5.85-5.58-12.06-18-12.06h-24.93v47.34h24.93c13.59 0 18.45-6.84 18.45-13.59s-5.04-9.45-6.93-10.44"/><path d="m255.945 162.69h-14.22v-7.38h15.39c2.25 0 3.6 1.8 3.6 3.51-.09 1.71-.9 3.87-4.77 3.87m-26.55 28.98h12.24v-18.81h11.43c3.42.09 6.12 2.79 6.12 6.3v12.51h11.97v-14.4c0-5.76-3.51-8.46-5.31-9.27 5.22-2.16 6.48-7.29 6.48-10.53 0-.36 0-.72-.09-.99-.54-5.85-5.58-12.06-18-12.06h-24.93z"/></g></svg>
